src/OnboardingSPA/static/icons/site-features/email_light.svg

<svg fill="none" height="17" viewBox="0 0 16 17" width="16" xmlns="http://www.w3.org/2000/svg"><path d="m10.3988 10.625h-5.20716l1.40272 1.2377 1.41699.0068-1.06043.0055h2.11156l.01246-.0111-.06211.0004zm.699-.625 2.0272-1.81252v-5.05709c0-.34816-.2842-.63039-.625-.63039h-9.37506c-.34516 0-.62498.27734-.62498.62629v5.12371l1.98332 1.75zm-5.416-8.125 2.13068-1.875 2.13068 1.875h2.55844c.6916 0 1.2484.55953 1.2484 1.24977v2.10023l1.875 1.65v8.7537c0 .6872-.5606 1.2463-1.2522 1.2463h-13.12055c-.696156 0-1.25225-.558-1.25225-1.2463v-8.7537l1.875-1.65v-2.10023c0-.69512.55893-1.24977 1.2484-1.24977h2.55844zm3.33558 0-1.2049-1.0625-1.2049 1.0625h2.40978zm4.73262 4.1733v1.66004l.9375-.83334zm-11.87502 1.66004v-1.66004l-.9375.8267zm4.0625 4.79166-4.375 3.75h12.50002l-4.37502-3.75zm8.86572 3.5782c.1211-.1145.1968-.2762.1968-.4532v-8.125l-5.00002 4.3857zm-13.981423 0 4.803203-4.1925-5-4.38572v8.12502c0 .177.075625.3386.196797.4532zm2.928203-11.7032v.625h8.12502v-.625zm0 1.875v.625h8.12502v-.625zm0 1.875v.625h8.12502v-.625z" fill="#fff"/></svg>

<svg width="16" height="17" viewBox="0 0 16 17" fill="none" xmlns="http://www.w3.org/2000/svg">
<path d="M10.3988 10.625H5.19164L6.59436 11.8627L8.01135 11.8695L6.95092 11.875H9.06248L9.07494 11.8639L9.01283 11.8643L10.3988 10.625V10.625ZM11.0978 10L13.125 8.18748V3.13039C13.125 2.78223 12.8408 2.5 12.5 2.5H3.12494C2.77978 2.5 2.49996 2.77734 2.49996 3.12629V8.25L4.48328 10H11.0978H11.0978ZM5.6818 1.875L7.81248 0L9.94316 1.875H12.5016C13.1932 1.875 13.75 2.43453 13.75 3.12477V5.225L15.625 6.875V15.6287C15.625 16.3159 15.0644 16.875 14.3728 16.875H1.25225C0.556094 16.875 0 16.317 0 15.6287V6.875L1.875 5.225V3.12477C1.875 2.42965 2.43393 1.875 3.1234 1.875H5.68184H5.6818ZM9.01738 1.875L7.81248 0.8125L6.60758 1.875H9.01736H9.01738ZM13.75 6.0483V7.70834L14.6875 6.875L13.75 6.0483ZM1.87498 7.70834V6.0483L0.93748 6.875L1.87498 7.70834ZM5.93748 12.5L1.56248 16.25H14.0625L9.68748 12.5H5.93748ZM14.8032 16.0782C14.9243 15.9637 15 15.802 15 15.625V7.5L9.99998 11.8857L14.8032 16.0782V16.0782ZM0.821777 16.0782L5.62498 11.8857L0.62498 7.49998V15.625C0.62498 15.802 0.700605 15.9636 0.821777 16.0782V16.0782ZM3.74998 4.375V5H11.875V4.375H3.74998ZM3.74998 6.25V6.875H11.875V6.25H3.74998ZM3.74998 8.125V8.75H11.875V8.125H3.74998Z" fill="white"/>
</svg>
